ui/StatusQ/src/assets/img/icons/tiny/public-chat-white.svg

<svg fill="none" height="17" viewBox="0 0 16 17" width="16" xmlns="http://www.w3.org/2000/svg"><g fill="#fff"><path d="m9.82051 5.10748c.32749-.12596.67949.11578.67949.46667v5.85175c0 .3509-.352.5926-.6795.4666l-1.61905-.6227c-.18331-.0705-.36905-.1342-.55685-.191-.26188-.0792-.52982.0852-.59618.3506l-.38425 1.537c-.30298 1.212-2.02535 1.212-2.32834 0l-.58746-2.3498c-.04763-.1905-.20239-.3355-.39562-.3707l-.53163-.0966c-.47549-.0865-.82112-.50061-.82112-.98389v-1.33085c0-.48329.34562-.89742.82111-.98387l3.93953-.71628c.49182-.08942.97418-.22474 1.44075-.40419z"/><path d="m12.3205 12.8541c-.1931-.0743-.3205-.2598-.3205-.4667v-7.77479c0-.20688.1274-.3924.3205-.46667l.3205-.12327c.655-.25193 1.359.23156 1.359.93334v7.08809c0 .7017-.704 1.1852-1.359.9333z"/></g></svg>

<svg width="16" height="17" viewBox="0 0 16 17" fill="none" xmlns="http://www.w3.org/2000/svg">
<path d="M9.82051 5.10748C10.148 4.98152 10.5 5.22326 10.5 5.57415V11.4259C10.5 11.7768 10.148 12.0185 9.8205 11.8925L8.20145 11.2698C8.01814 11.1993 7.8324 11.1356 7.6446 11.0788C7.38272 10.9996 7.11478 11.164 7.04842 11.4294L6.66417 12.9664C6.36119 14.1784 4.63882 14.1784 4.33583 12.9664L3.74837 10.6166C3.70074 10.4261 3.54598 10.2811 3.35275 10.2459L2.82112 10.1493C2.34563 10.0628 2 9.64869 2 9.16541V7.83456C2 7.35127 2.34562 6.93714 2.82111 6.85069L6.76064 6.13441C7.25246 6.04499 7.73482 5.90967 8.20139 5.73022L9.82051 5.10748Z" fill="white"/>
<path d="M12.3205 12.8541C12.1274 12.7798 12 12.5943 12 12.3874V4.61261C12 4.40573 12.1274 4.22021 12.3205 4.14594L12.641 4.02267C13.296 3.77074 14 4.25423 14 4.95601V12.0441C14 12.7458 13.296 13.2293 12.641 12.9774L12.3205 12.8541Z" fill="white"/>
</svg>
